sun-motion-simulator/img/stickfigure.svg

<?xml version="1.0" encoding="UTF-8" standalone="no"?>
<svg
   xmlns:dc="http://purl.org/dc/elements/1.1/"
   xmlns:cc="http://creativecommons.org/ns#"
   xmlns:rdf="http://www.w3.org/1999/02/22-rdf-syntax-ns#"
   xmlns:svg="http://www.w3.org/2000/svg"
   xmlns="http://www.w3.org/2000/svg"
   xmlns:xlink="http://www.w3.org/1999/xlink"
   xmlns:sodipodi="http://sodipodi.sourceforge.net/DTD/sodipodi-0.dtd"
   xmlns:inkscape="http://www.inkscape.org/namespaces/inkscape"
   height="64"
   width="32"
   version="1.1"
   id="svg828"
   sodipodi:docname="stickfigure.svg"
   inkscape:version="0.92.3 (2405546, 2018-03-11)">
  <metadata
     id="metadata832">
    <rdf:RDF>
      <cc:Work
         rdf:about="">
        <dc:format>image/svg+xml</dc:format>
        <dc:type
           rdf:resource="http://purl.org/dc/dcmitype/StillImage" />
        <dc:title></dc:title>
      </cc:Work>
    </rdf:RDF>
  </metadata>
  <sodipodi:namedview
     pagecolor="#ffffff"
     bordercolor="#666666"
     borderopacity="1"
     objecttolerance="10"
     gridtolerance="10"
     guidetolerance="10"
     inkscape:pageopacity="0"
     inkscape:pageshadow="2"
     inkscape:window-width="2560"
     inkscape:window-height="1380"
     id="namedview830"
     showgrid="false"
     fit-margin-top="0"
     fit-margin-left="0"
     fit-margin-right="0"
     fit-margin-bottom="0"
     inkscape:zoom="23.545544"
     inkscape:cx="11.0324"
     inkscape:cy="37.430352"
     inkscape:window-x="0"
     inkscape:window-y="31"
     inkscape:window-maximized="1"
     inkscape:current-layer="svg828" />
  <g
     transform="matrix(1.2533052,0,0,1.2533052,16.000149,62.792434)"
     id="g817">
    <use
       height="51.049999"
       transform="translate(-10,-50.1)"
       width="20"
       xlink:href="#shape0"
       id="use815"
       x="0"
       y="0" />
  </g>
  <defs
     id="defs826">
    <g
       id="shape0"
       transform="translate(10,50.1)">
      <path
         d="m 3.25,-40.55 q -1.45,1.5 -3.5,1.5 -2.1,0 -3.55,-1.5 -1.45,-1.5 -1.45,-3.55 0,-2.1 1.45,-3.55 1.45,-1.5 3.55,-1.45 2.05,-0.05 3.5,1.45 1.5,1.45 1.5,3.55 0,2.05 -1.5,3.55"
         id="path819"
         inkscape:connector-curvature="0"
         style="fill:#ffffff;fill-rule:evenodd;stroke:none" />
      <path
         d="M 1.15,-33 9,-29.25 m -5.75,-11.3 q -1.45,1.5 -3.5,1.5 -2.1,0 -3.55,-1.5 -1.45,-1.5 -1.45,-3.55 0,-2.1 1.45,-3.55 1.45,-1.5 3.55,-1.45 2.05,-0.05 3.5,1.45 1.5,1.45 1.5,3.55 0,2.05 -1.5,3.55 M -0.25,-33 -9,-29.25 m 8.75,7.25 7.9,21.95 m -15.5,0 7.5,-22.3 0.1,0.35"
         id="path821"
         inkscape:connector-curvature="0"
         style="fill:none;stroke:#000000;stroke-width:2;stroke-linecap:round;stroke-linejoin:round" />
      <path
         d="M -0.25,-36.85 V -33 -22"
         id="path823"
         inkscape:connector-curvature="0"
         style="fill:none;stroke:#000000;stroke-width:2;stroke-linecap:round;stroke-linejoin:round" />
    </g>
  </defs>
</svg>

<?xml version="1.0" encoding="UTF-8" standalone="no"?>
<svg xmlns:xlink="http://www.w3.org/1999/xlink" height="51.05px" width="20.0px" xmlns="http://www.w3.org/2000/svg">
  <g transform="matrix(1.0, 0.0, 0.0, 1.0, 10.0, 50.1)">
    <use height="51.05" transform="matrix(1.0, 0.0, 0.0, 1.0, -10.0, -50.1)" width="20.0" xlink:href="#shape0"/>
  </g>
  <defs>
    <g id="shape0" transform="matrix(1.0, 0.0, 0.0, 1.0, 10.0, 50.1)">
      <path d="M3.25 -40.55 Q1.8 -39.05 -0.25 -39.05 -2.35 -39.05 -3.8 -40.55 -5.25 -42.05 -5.25 -44.1 -5.25 -46.2 -3.8 -47.65 -2.35 -49.15 -0.25 -49.1 1.8 -49.15 3.25 -47.65 4.75 -46.2 4.75 -44.1 4.75 -42.05 3.25 -40.55" fill="#ffffff" fill-rule="evenodd" stroke="none"/>
      <path d="M1.15 -33.0 L9.0 -29.25 M3.25 -40.55 Q1.8 -39.05 -0.25 -39.05 -2.35 -39.05 -3.8 -40.55 -5.25 -42.05 -5.25 -44.1 -5.25 -46.2 -3.8 -47.65 -2.35 -49.15 -0.25 -49.1 1.8 -49.15 3.25 -47.65 4.75 -46.2 4.75 -44.1 4.75 -42.05 3.25 -40.55 M-0.25 -33.0 L-9.0 -29.25 M-0.25 -22.0 L7.65 -0.05 M-7.85 -0.05 L-0.35 -22.35 -0.25 -22.0" fill="none" stroke="#000000" stroke-linecap="round" stroke-linejoin="round" stroke-width="2.0"/>
      <path d="M-0.25 -36.85 L-0.25 -33.0 -0.25 -22.0" fill="none" stroke="#000000" stroke-linecap="round" stroke-linejoin="round" stroke-width="2.0"/>
    </g>
  </defs>
</svg>
